X:2
T:Arne's Maggot. JJo.002
T:Arne's Jig,aka. JJo.002
B:J.Johnson Choice Collection Vol 8 1758
Z:vmp.Simon Wilson 2013 www.village-music-project.org.uk
Z:Dance added by John Chambers 2017
M:C|
L:1/8
%Q:1/2=90
K:G
|: G2(BG) (Bd)(BG) | F2(AF) (Ac)(AF) | G2(BG) (Bd)(gB) | (cA) (Fd) (BG)G2 :|
|: Tg2(bg) (af)(ed) | e2Tf2({ef}g/f/g/a/ g)d | Tg2(bg) (af)(ed) | e2Tf2(g/f/g/a/ g)d |
y2 (ce)(Ac) (Bd)(GB) | (Aa)Tf2({ef}gb)(Bd) | (ce)(Ac) (Bd)(GB) | (A/B/c) DFTG2G,2 :|
%%begintext align
%% First Man set to the 2d Wo. and
%% turn .| 1st Wo. and wd Man the
%% same :| Cross over two Cu. :||. Lead
%% up to the top and cast off :||: Hands
%% 4 round at Bottom .:||: Right hands
%% and Left at top .:||:.
%%endtext
